Papirus/16x16/actions/boundingbox_top.svg

<?xml version="1.0" encoding="UTF-8" standalone="no"?>
<svg xmlns:osb="http://www.openswatchbook.org/uri/2009/osb" xmlns:dc="http://purl.org/dc/elements/1.1/" xmlns:cc="http://creativecommons.org/ns#" xmlns:rdf="http://www.w3.org/1999/02/22-rdf-syntax-ns#" xmlns:svg="http://www.w3.org/2000/svg" xmlns="http://www.w3.org/2000/svg" width="16" height="16" viewBox="0 0 16 16" id="svg6394" version="1.1">
    <defs id="defs6396">
        <linearGradient id="linearGradient19282" osb:paint="solid" gradientTransform="matrix(-0.40801424,2.7359005,1.4465395,0.18903615,2588.4859,828.26016)">
            <stop style="stop-color:#000000;stop-opacity:1;" offset="0" id="stop19284"/>
        </linearGradient>
        <linearGradient id="linearGradient19282-3" osb:paint="solid" gradientTransform="matrix(-2.7359006,0.40801425,-0.18903616,-1.4465395,-804.26018,-2564.486)">
            <stop style="stop-color:#000000;stop-opacity:1;" offset="0" id="stop19284-6"/>
        </linearGradient>
        <linearGradient gradientTransform="matrix(-2.73658,0.4081035,-0.1890831,-1.446856,-1254.4599,-3933.7766)" osb:paint="solid" id="linearGradient19282-36">
            <stop id="stop19284-7" offset="0" style="stop-color:#666666;stop-opacity:1;"/>
        </linearGradient>
    </defs>
    <metadata id="metadata6399">
        <rdf:RDF>
            <cc:Work rdf:about="">
                <dc:format>
                    image/svg+xml
                </dc:format>
                <dc:type rdf:resource="http://purl.org/dc/dcmitype/StillImage"/>
                <dc:title/>
            </cc:Work>
        </rdf:RDF>
    </metadata>
    <path style="opacity:0.5;fill:#000000;fill-opacity:1;stroke:none;stroke-width:2;stroke-linecap:round;stroke-linejoin:round;stroke-miterlimit:4;stroke-dasharray:none;stroke-opacity:1" d="M 8,0 C 5.6242439,2.58e-4 3.5767137,1.672244 3.1015625,4 L 0,4 0,6 3.1054688,6 C 3.5803257,8.326319 5.6257116,9.997888 8,10 10.375756,9.999743 12.423287,8.327756 12.898438,6 L 16,6 16,4 12.894531,4 C 12.419674,1.673681 10.374288,0.002113 8,0 Z" id="path4316"/>
</svg>

<?xml version="1.0" encoding="UTF-8" standalone="no"?>
<svg id="svg6394" xmlns:rdf="http://www.w3.org/1999/02/22-rdf-syntax-ns#" xmlns="http://www.w3.org/2000/svg" xmlns:osb="http://www.openswatchbook.org/uri/2009/osb" height="16" width="16" version="1.1" xmlns:cc="http://creativecommons.org/ns#" viewBox="0 0 16 16" xmlns:dc="http://purl.org/dc/elements/1.1/">
 <metadata id="metadata6399">
  <rdf:RDF>
   <cc:Work rdf:about="">
    <dc:format>image/svg+xml</dc:format>
    <dc:type rdf:resource="http://purl.org/dc/dcmitype/StillImage"/>
    <dc:title/>
   </cc:Work>
  </rdf:RDF>
 </metadata>
 <path id="path4316" opacity=".5" d="m8 0c-2.3758 0.000258-4.4233 1.6722-4.8984 4h-3.1016v2h3.1055c0.4748 2.3263 2.5202 3.9979 4.8945 4 2.376-0.0003 4.423-1.6722 4.898-4h3.102v-2h-3.105c-0.475-2.3263-2.521-3.9979-4.895-4z"/>
</svg>
